src/routes/AnnualReport2018/assets/askdarcel-bg.svg

<svg fill="none" height="747" viewBox="0 0 1320 747" width="1320" xmlns="http://www.w3.org/2000/svg"><g fill="#205493"><path d="m54.6442 721.074-54.6442 25.926h1320v-747l-54.64 8.10195h-54.65l-54.64 8.10195-58.06 12.9631-109.291 9.7224-54.644 46.9913-110.996 9.7223-51.229 21.065-56.352 17.824-54.644 27.547-52.937 38.889-58.059 29.167-49.522 40.51-59.767 17.825-56.352 85.88-51.229 12.963-56.352 34.029-54.644 123.149-54.644 59.955-54.644 108.566z" opacity=".5"/><path d="m51.0861 729.995-51.0861 17.005h1320v-653l-47.79 20.406-54.38 5.102-56.03 11.903-51.09 18.706-52.73 18.706-110.415 8.503-51.086 23.807-52.734 13.604-51.086 20.406-52.734 18.706-51.086 8.503-52.734 11.903-51.086 15.305-51.086 18.706-54.382 22.106-56.03 22.107-57.678 47.615-44.495 57.997-51.086 44.034-57.678 90.128-51.086 44.213-56.03 74.823z"/></g></svg>

<svg width="1320" height="747" viewBox="0 0 1320 747" fill="none" xmlns="http://www.w3.org/2000/svg">
<path opacity="0.5" d="M54.6442 721.074L0 747H1320V0L1265.36 8.10195H1210.71L1156.07 16.2039L1098.01 29.167L988.719 38.8894L934.075 85.8807L823.079 95.603L771.85 116.668L715.498 134.492L660.854 162.039L607.917 200.928L549.858 230.095L500.336 270.605L440.569 288.43L384.217 374.31L332.988 387.273L276.636 421.302L221.992 544.451L167.348 604.406L112.704 712.972L54.6442 721.074Z" fill="#205493"/>
<path d="M51.0861 729.995L0 747H1320V94L1272.21 114.406L1217.83 119.508L1161.8 131.411L1110.71 150.117L1057.98 168.823L947.565 177.326L896.479 201.133L843.745 214.737L792.659 235.143L739.925 253.849L688.839 262.352L636.105 274.255L585.019 289.56L533.933 308.266L479.551 330.372L423.521 352.479L365.843 400.094L321.348 458.091L270.262 502.125L212.584 592.253L161.498 636.466L105.468 711.289L51.0861 729.995Z" fill="#205493"/>
</svg>
